assets/images/sections/amazon-web-services-mailing/server-settings.svg

<svg width="34" height="31" viewBox="0 0 34 31" version="1.1" xmlns="http://www.w3.org/2000/svg" xmlns:xlink="http://www.w3.org/1999/xlink">
<title>monitor</title>
<desc>Created using Figma</desc>
<g id="Canvas" transform="translate(-427 -6225)">
<g id="monitor">
<g id="Shape">
<use xlink:href="#path0_fill" transform="translate(448.145 6232.88)" fill="#FFFFFF"/>
</g>
<g id="Shape">
<use xlink:href="#path1_fill" transform="translate(435.175 6232.88)" fill="#FFFFFF"/>
</g>
<g id="Shape">
<use xlink:href="#path2_fill" transform="translate(441.806 6231.27)" fill="#FFFFFF"/>
</g>
<g id="Shape">
<use xlink:href="#path3_fill" transform="translate(427 6225.05)" fill="#FFFFFF"/>
</g>
<g id="Shape">
<use xlink:href="#path4_fill" transform="translate(443.447 6248.52)" fill="#FFFFFF"/>
</g>
</g>
</g>
<defs>
<path id="path0_fill" d="M 4.51798 3.75821L 0.944596 0.163076C 0.728576 -0.0543252 0.378283 -0.054392 0.162064 0.163076C -0.0540215 0.38041 -0.0540215 0.732901 0.162064 0.950302L 3.34425 4.15185L 0.162064 7.35334C -0.0540215 7.57067 -0.0540215 7.92316 0.162064 8.14056C 0.270174 8.24933 0.411752 8.30365 0.55333 8.30365C 0.694908 8.30365 0.836553 8.24927 0.944529 8.14063L 4.51792 4.5455C 4.73407 4.3281 4.73407 3.97561 4.51798 3.75821Z"/>
<path id="path1_fill" d="M 1.33579 4.15183L 4.51792 0.950277C 4.734 0.732943 4.734 0.380452 4.51792 0.163051C 4.3019 -0.0543502 3.95154 -0.0543502 3.73545 0.163051L 0.162064 3.75818C -0.0540215 3.97552 -0.0540215 4.32801 0.162064 4.54541L 3.73545 8.14054C 3.84343 8.24931 3.98507 8.30362 4.12665 8.30362C 4.26823 8.30362 4.40987 8.24924 4.51785 8.14047C 4.73394 7.92314 4.73394 7.57065 4.51785 7.35325L 1.33579 4.15183Z"/>
<path id="path2_fill" d="M 4.00133 0.0261423C 3.71008 -0.0667241 3.39903 0.0956919 3.30686 0.388722L 0.02599 10.8089C -0.0663147 11.102 0.0950525 11.4149 0.386377 11.5078C 0.442025 11.5255 0.498271 11.5339 0.553654 11.5339C 0.7884 11.5339 1.00628 11.3823 1.08099 11.1452L 4.36172 0.724979C 4.45403 0.431815 4.29266 0.118942 4.00133 0.0261423Z"/>
<path id="path3_fill" fill-rule="evenodd" d="M 2.70633 0L 31.2937 0C 32.7859 0 34 1.22168 33.9999 2.72266L 33.9999 23.8584C 33.9999 25.3594 32.7859 26.5811 31.2936 26.5811L 21.8117 26.5811L 23.1727 29.7842L 25.8312 29.7842C 26.1367 29.7842 26.3845 30.0337 26.3845 30.3408C 26.3845 30.6484 26.1368 30.8975 25.8312 30.8975L 8.16876 30.8975C 7.86322 30.8975 7.61548 30.6484 7.61548 30.3408C 7.61548 30.0337 7.86316 29.7842 8.16876 29.7842L 10.8273 29.7842L 12.1882 26.5811L 2.70633 26.5811C 1.21411 26.5811 0 25.3594 0 23.8584L 0 8.53564C 0 8.22803 0.247772 7.97852 0.553284 7.97852C 0.858826 7.97852 1.1066 8.22803 1.1066 8.53564L 1.1066 21.7246L 27.582 21.7246C 27.8875 21.7246 28.1353 21.9736 28.1353 22.2812C 28.1353 22.5884 27.8876 22.8379 27.582 22.8379L 1.1066 22.8379L 1.1066 23.8579C 1.1066 24.7456 1.82419 25.4678 2.70633 25.4678L 13.0265 25.4678L 20.9735 25.4678L 31.2937 25.4678C 32.1758 25.4678 32.8934 24.7456 32.8934 23.8579L 32.8934 22.8379L 29.4263 22.8379C 29.1208 22.8379 28.873 22.5884 28.873 22.2812C 28.873 21.9736 29.1207 21.7246 29.4263 21.7246L 32.8934 21.7246L 32.8934 2.72266C 32.8934 1.83545 32.1758 1.11328 31.2937 1.11328L 2.70633 1.11328C 1.82425 1.11328 1.1066 1.83545 1.1066 2.72266L 1.1066 6.67969C 1.1066 6.9873 0.858826 7.23633 0.553284 7.23633C 0.247772 7.23633 0 6.9873 0 6.67969L 0 2.72266C 0 1.22168 1.21411 0 2.70633 0ZM 12.0308 29.7842L 21.9692 29.7842L 21.0237 27.5586L 12.9763 27.5586L 12.0308 29.7842Z"/>
<path id="path4_fill" d="M 1.01291 0.247196C 0.885806 0.0530452 0.642161 -0.0400216 0.418439 0.0162328C 0.184888 0.074959 0.0122982 0.286681 0.000677079 0.528668C -0.0234948 1.03202 0.605372 1.30561 0.952279 0.941022C 1.12912 0.755155 1.15668 0.461524 1.01291 0.247196Z"/>
</defs>
</svg>

<svg xmlns="http://www.w3.org/2000/svg" xmlns:xlink="http://www.w3.org/1999/xlink" width="34" height="31"><g fill="#fff" transform="translate(-427 -6225)"><use xlink:href="#A" x="448.145" y="6232.88"/><use xlink:href="#B" x="435.175" y="6232.88"/><use xlink:href="#C" x="441.806" y="6231.27"/><use xlink:href="#D" x="427" y="6225.05"/><use xlink:href="#E" x="443.447" y="6248.52"/></g><defs><path id="A" d="M4.518 3.758L.945.163a.55.55 0 0 0-.783 0 .56.56 0 0 0 0 .787l3.182 3.202-3.182 3.2a.56.56 0 0 0 0 .787.55.55 0 0 0 .391.163.55.55 0 0 0 .391-.163l3.573-3.595a.56.56 0 0 0 0-.787z"/><path id="B" d="M1.336 4.152L4.518.95a.56.56 0 0 0 0-.787.55.55 0 0 0-.782 0L.162 3.758a.56.56 0 0 0 0 .787L3.735 8.14a.55.55 0 0 0 .782 0 .56.56 0 0 0 0-.787l-3.182-3.2z"/><path id="C" d="M4 .026C3.7-.067 3.4.096 3.307.39L.026 10.81c-.092.293.07.606.36.7a.55.55 0 0 0 .167.026c.235 0 .453-.152.527-.39L4.362.725c.092-.293-.07-.606-.36-.7z"/><path id="D" d="M2.706 0h28.587C32.786 0 34 1.222 34 2.723v21.136c0 1.5-1.214 2.723-2.706 2.723h-9.482l1.36 3.203h2.66c.306 0 .553.25.553.557s-.248.557-.553.557H8.17c-.306 0-.553-.25-.553-.557s.248-.557.553-.557h2.66l1.36-3.203H2.706C1.214 26.58 0 25.36 0 23.858V8.536c0-.308.248-.557.553-.557s.553.25.553.557v13.19h26.475c.305 0 .553.25.553.557s-.248.557-.553.557H1.107v1.02c0 .888.718 1.6 1.6 1.6h28.587c.882 0 1.6-.722 1.6-1.6v-1.02h-3.467c-.306 0-.553-.25-.553-.557s.248-.557.553-.557h3.467V2.723c0-.887-.718-1.61-1.6-1.61H2.706c-.882 0-1.6.722-1.6 1.61V6.68c0 .308-.248.557-.553.557S0 6.987 0 6.68V2.723C0 1.222 1.214 0 2.706 0zm9.324 29.784h9.938l-.945-2.226h-8.047l-.946 2.226z" fill-rule="evenodd"/><path id="E" d="M1.013.247C.886.053.642-.04.418.016a.56.56 0 0 0-.418.512.56.56 0 0 0 .952.412c.177-.186.204-.48.06-.694z"/></defs></svg>
